X: 9725
T: Deerfoot
R: hornpipe
M: 4/4
K: Fmajor
c2|cfaf gcde|fegf afga|bgaf gdbg|fedc cBAB|
cfaf gcde|fAaf gcde|{/g}fefd cBAG|F2F2 F2:|
|:cB|Acfe dcBA|BGgf edcB|Acag fedc|cBAB G2cB|
Acfe dBgf|ecag fedc|dfed cBAG|F2F2 F2:|

